packages/icons/src/tasCanarySetup.svg

<svg viewBox="0 0 33 33" fill="none" xmlns="http://www.w3.org/2000/svg">
<path d="M11.3315 27.3247C11.057 27.2942 10.8098 27.492 10.7793 27.7664C10.7488 28.0409 10.9465 28.2881 11.221 28.3186L11.3315 27.3247ZM21.8089 20.7973L21.3345 20.6393L21.8089 20.7973ZM14.7871 15.8801L15.141 16.2334L15.3046 16.0694L15.2854 15.8386L14.7871 15.8801ZM3.89614 26.0825C3.70105 26.2779 3.70132 26.5945 3.89676 26.7896C4.09219 26.9847 4.40877 26.9844 4.60386 26.789L3.89614 26.0825ZM22.4962 15.8801L22.1857 15.4883L22.0044 15.6319L21.9965 15.863L22.4962 15.8801ZM24.1498 14.5696L24.4604 14.9614C24.5811 14.8657 24.651 14.7198 24.6498 14.5657C24.6486 14.4117 24.5765 14.2668 24.4544 14.173L24.1498 14.5696ZM22.2811 13.1346L21.7942 13.2482L21.8348 13.4223L21.9766 13.5312L22.2811 13.1346ZM11.221 28.3186C14.5378 28.6873 17.08 27.5527 18.9008 25.9696C20.7087 24.3978 21.8068 22.3853 22.2833 20.9554L21.3345 20.6393C20.9052 21.9277 19.8968 23.7786 18.2447 25.215C16.6055 26.6401 14.3342 27.6585 11.3315 27.3247L11.221 28.3186ZM14.4333 15.5269L3.89614 26.0825L4.60386 26.789L15.141 16.2334L14.4333 15.5269ZM22.2833 20.9554C22.8169 19.354 22.9572 17.0269 22.9959 15.8973L21.9965 15.863C21.9575 17.0002 21.8168 19.1919 21.3345 20.6393L22.2833 20.9554ZM22.8068 16.272L24.4604 14.9614L23.8393 14.1777L22.1857 15.4883L22.8068 16.272ZM22.768 13.0209C22.0662 10.0138 19.8184 8.52592 17.6835 9.04961C15.5556 9.57158 13.961 11.9866 14.2888 15.9216L15.2854 15.8386C14.9784 12.1533 16.4728 10.3762 17.9217 10.0208C19.3635 9.66715 21.18 10.6166 21.7942 13.2482L22.768 13.0209ZM24.4544 14.173L22.5857 12.738L21.9766 13.5312L23.8453 14.9661L24.4544 14.173Z" fill="#FCB519"/>
<path d="M4.44024 18.7564C4.29783 17.9349 4.23496 17.0871 4.25967 16.2214C4.45892 9.24114 10.2769 3.7441 17.2545 3.94342C24.2321 4.14275 29.7319 10.3046 29.5327 17.2849C29.5078 18.1563 29.3953 18.9992 29.2038 19.8069M11.0974 27.8216C12.73 28.6657 14.573 29.1652 16.533 29.2212C17.3677 29.245 18.186 29.1922 18.9801 29.0689" stroke="#FCB519" stroke-linecap="round" stroke-linejoin="round"/>
<path d="M28.9772 31.4291H25.5675C25.501 31.4296 25.4352 31.4149 25.3751 31.3862C25.3151 31.3575 25.2623 31.3154 25.221 31.2632L23.0559 28.5542C23.0134 28.5009 22.9837 28.4386 22.9692 28.372C22.9547 28.3055 22.9557 28.2365 22.9721 28.1703L23.7956 24.8538C23.8115 24.7916 23.8405 24.7335 23.8807 24.6833C23.9208 24.6332 23.9713 24.5922 24.0285 24.5632L27.0805 23.0335C27.1419 23.0031 27.2094 22.9873 27.278 22.9873C27.3465 22.9873 27.4141 23.0031 27.4755 23.0335L30.5665 24.565C30.6251 24.5935 30.6767 24.6346 30.7173 24.6856C30.7579 24.7365 30.7866 24.7959 30.8013 24.8594L31.5875 28.1759C31.602 28.2405 31.6017 28.3075 31.5869 28.372C31.5721 28.4364 31.543 28.4968 31.5018 28.5486L29.3219 31.2651C29.2804 31.3165 29.2278 31.3579 29.1682 31.3863C29.1085 31.4146 29.0433 31.4293 28.9772 31.4291ZM25.5675 30.9726H28.9697L31.1404 28.2728L30.3578 24.9694L27.2798 23.4453L24.2391 24.9694L23.4174 28.2747L25.5675 30.9726Z" fill="#238FCF"/>
<path d="M31.1969 23.954L31.5844 23.6354L27.5059 21.6157V22.1262L31.1969 23.954Z" fill="#1BBFD3"/>
<path d="M22.2514 28.6997L21.7539 28.8096L24.599 32.3795L24.8226 31.9268L22.2514 28.6997Z" fill="#79BF43"/>
<path d="M27.0479 22.1282V21.6177L23.0234 23.6355L23.3998 23.9597L27.0479 22.1282Z" fill="#1BBFD3"/>
<path d="M23.1281 24.3284L22.7405 23.9949L21.6543 28.3622L22.1536 28.2523L23.1281 24.3284Z" fill="#1D4489"/>
<path d="M32.4062 28.2541L32.9037 28.3641L31.8696 23.9949L31.4746 24.3191L32.4062 28.2541Z" fill="#1D4489"/>
<path d="M32.3042 28.6997L29.7051 31.9324L29.9268 32.3851L32.8017 28.8096L32.3042 28.6997Z" fill="#79BF43"/>
<path d="M25.2333 32.1243L25.0098 32.5826H29.5131L29.2895 32.1243H25.2333Z" fill="#1BBFD3"/>
</svg>

<svg viewBox="0 0 33 33" fill="none" xmlns="http://www.w3.org/2000/svg"><path d="M11.332 27.325a.5.5 0 0 0-.111.994l.11-.994Zm10.477-6.528-.475-.158.475.158Zm-7.022-4.917.354.353.164-.164-.02-.23-.498.041ZM3.897 26.082a.5.5 0 1 0 .707.707l-.708-.707Zm18.6-10.202-.311-.392-.182.144-.008.231.5.017Zm1.653-1.31.31.391a.5.5 0 0 0-.006-.788l-.304.397Zm-1.869-1.435-.487.113.04.174.143.11.304-.397Zm-11.06 15.184c3.317.368 5.859-.766 7.68-2.35 1.808-1.571 2.906-3.584 3.382-5.014l-.949-.316c-.429 1.289-1.437 3.14-3.09 4.576-1.639 1.425-3.91 2.444-6.912 2.11l-.111.994Zm3.212-12.792L3.896 26.083l.708.706L15.14 16.233l-.708-.706Zm7.85 5.428c.534-1.601.674-3.928.713-5.058l-1-.034c-.038 1.137-.18 3.329-.662 4.776l.95.316Zm.524-4.683 1.653-1.31-.62-.784-1.654 1.31.62.784Zm-.039-3.251c-.702-3.007-2.95-4.495-5.085-3.971-2.127.522-3.722 2.937-3.394 6.872l.996-.083c-.307-3.686 1.188-5.463 2.637-5.818 1.441-.354 3.258.596 3.872 3.227l.974-.227Zm1.686 1.152-1.868-1.435-.61.793 1.87 1.435.608-.793Z" fill="#FCB519"/><path d="M4.44 18.756a12.707 12.707 0 0 1-.18-2.535c.199-6.98 6.017-12.477 12.995-12.278 6.977.2 12.477 6.362 12.278 13.342a12.463 12.463 0 0 1-.33 2.522m-18.106 8.015a12.585 12.585 0 0 0 5.436 1.4c.835.023 1.653-.03 2.447-.153" stroke="#FCB519" stroke-linecap="round" stroke-linejoin="round"/><path d="M28.977 31.43h-3.41a.439.439 0 0 1-.346-.167l-2.165-2.709a.444.444 0 0 1-.084-.384l.824-3.316a.452.452 0 0 1 .233-.29l3.052-1.53a.445.445 0 0 1 .395 0l3.09 1.531a.437.437 0 0 1 .235.294l.787 3.317a.443.443 0 0 1-.086.373l-2.18 2.716a.442.442 0 0 1-.345.164Zm-3.41-.457h3.403l2.17-2.7-.782-3.304-3.078-1.524-3.04 1.524-.823 3.306 2.15 2.698Z" fill="#238FCF"/><path d="m31.197 23.954.387-.319-4.078-2.02v.511l3.69 1.828Z" fill="#1BBFD3"/><path d="m22.251 28.7-.497.11 2.845 3.57.224-.453L22.25 28.7Z" fill="#79BF43"/><path d="M27.048 22.128v-.51l-4.025 2.018.377.324 3.648-1.832Z" fill="#1BBFD3"/><path d="m23.128 24.328-.387-.333-1.087 4.367.5-.11.974-3.924ZM32.406 28.254l.498.11-1.034-4.37-.395.325.931 3.935Z" fill="#1D4489"/><path d="m32.304 28.7-2.599 3.232.222.453 2.875-3.575-.498-.11Z" fill="#79BF43"/><path d="m25.233 32.124-.223.459h4.503l-.224-.459h-4.056Z" fill="#1BBFD3"/></svg>
